-----BEGIN PGP SIGNATURE-----

iQIzBAABCgAdFiEEkqrZAbIbS8eaR6AwVPGmYxdIZxMFAl7jBA0ACgkQVPGmYxdI
ZxNYxBAAkYAUfJC9QoFZTLMQHlgQLiUuEdOaMSUmjcc8dbAWmdYn5eobkOu1VjYV
OpgrEOoFs3Vh58vsXAaczigbqBmi4ScWB8F2Rmg6wqRqpo33PT/MUFjGOXsi+ERZ
TooqKuIC2UmnlY/+9kAYzBbTMYo+wa26M1QGSLM5ackrADzHnFAHIvuzyvRFyazT
2muKWFLnQk2n9SxTYYyFIbuifsq/puNCu4qwcrXAhs7iyLvPGS6cwL1bsM5SiiBI
x3VcvgIVyuTL0U51AZxisKzFrz9QkAxcwM4pnije/kKEo23wwwJ6QQqmdvv1AU/G
rsTkAGrRYjyNyIymkMp7qhkcR2U51/OgQoBSTMleGqVSU4+pYcG75abPtYBDRacE
IaRJgbUuaEf4ML046YuzhRz73tI3P3b31GCD2DJVXpBstMlGKPZMx7nChzXqeaBR
G4OUwuYbyhEtEnwGd7cgXsZVgYoNeouID4bIAyG06fJ0SzjwT3ugnKoFRLuhdK2M
qL45qh4XPZL9W8OhRFqhwcAVplOtdEuFbw4/JIoT8R8g87a6TglHCreyO3muxSPG
qqmN4uerOTlIdfiByQa+Tc2EThKFfr8VHtWCFkR2yIZ8nNh65PkLJAmJSxpMHFWb
/TWYfrzfHCerRJPY/xadxR7Jm9t26sQvyvt4pRIjA9QTqPkcW9o=
=MQOP
-----END PGP SIGNATURE-----
