-----BEGIN PGP SIGNATURE-----

iQIzBAABCAAdFiEEm/uu6GwKpf+/IgeCmvRrMCV3GzEFAmAS5OgACgkQmvRrMCV3
GzHMTQ/+KBTWXK/dfsbGV74+7/EDqzKh1M0zOIGewJtCeBh+jA7nmeRVW3ZtX+IR
vnDXAJrs08+iWLIKJ+wAABnm3s3FalcVBenXG86ExUNxWT22d5JMk6RKr2zCduV0
qmSW2KWZTPk3wUe8mSsX8S0iIi7ocPahFi8nYQeDPpVgf+NrZOJoCuY87xaOmo9e
PDS15Gpoev5KmEveIts4HCdEUOcH8uVuDuqnlq9/gGdzkwmJZEvRv0FmPa6315CF
bQAyIDIGhIPiYO57dz4jkSPHAlWFdz+xWKOQXGVIj0WHDzb1Vu4Db9qSEOz6Lv9c
xUS/0UeFYlk9nNxAAm0vWKBmtPw3OvYvxM2HSHpXfr5XFnX3d3CG7aCivShUy/hM
aOQCjRJlWVr7lzfiQ1lUxbBXFxPmnhTpmhQFeWYYt76m8Q5ODiTLjyXfRdeYKkbT
EJ361RbSIwI1ou2Uhy8WhFfK2MrJtEI9Tfk/chp4x7gjYmS55KUINvhp3LNjxRYC
rsQj4ppPZYtg4g44rkMdDaPCwf9Tjvf/xnAXSBSDfSbvTeCzSZFg1YLuDjV/0zh5
x9mPOXdAA5x950vkp5n/E5sWXHvLiiIsuV5OWU/qEHxnaDIDhdxpPYkRPnImzUUI
hd2Pp2LK2LdEMvyk4tmsPG/wAlDwfX88ljRll4LgLk/Bg8bVxOw=
=QYfF
-----END PGP SIGNATURE-----
