ubuntu.slaves.black/2/packages/icc-profiles-free/src/TR003.ti3
CTI3

KEYWORD "DEVICE_CLASS"
DEVICE_CLASS "OUTPUT"
KEYWORD "COLOR_REP"
COLOR_REP "CMYK_LAB"

ORIGINATOR  "ANSI CGATS and SWOP Committee"
FILE_DESCRIPTOR "Color Characterization Data for SWOP proofing on Grade 3 coated paper"
CREATED  "8/3/2006   Time: 20:57"
# This file is provided in support of ANSI/CGATS/SWOP TR 003-2007
TARGET_TYPE "ANSI IT8.7/4"
COPYRIGHT "Copyright 2007 by NPES The Association for Suppliers of Printing, Publishing and Converting Technologies."
# Profiles, or other derivative work, based on these data may be distributed with no further permissions from CGATS.
# However, this Technical Report must be identified as the source of the characterization data.
PRINT_CONDITIONS "See ANSI/CGATS/SWOP TR 003-2007"
ILLUMINANT "D50"
MEASUREMENT_GEOMETRY "0/45"
OBSERVER "CIE 2 degree"
SAMPLE_BACKING "White"
# For computations of data over a black backing using the method defined in Annex A
# of ANSI/CGATS/SWOP TR 003-2007 a reference value for the substrate 
# over black is XYZ_X =73.96, XYZ_Y = 77.05, XYZ_Z = 64.97
# Data extracted from this characterization data set for the IDEAliance ISO 12647-7 Digital Control Strip 2007
#  is available at www.SWOP.org

NUMBER_OF_FIELDS   11
BEGIN_DATA_FORMAT
SAMPLE_ID  CMYK_C CMYK_M CMYK_Y CMYK_K XYZ_X XYZ_Y XYZ_Z LAB_L LAB_A LAB_B
END_DATA_FORMAT

NUMBER_OF_SETS    1617
BEGIN_DATA
1 0 0 0 0 78.9 81.83 67.53 92.5 0 0
2 0 10 0 0 72.09 71.47 60.04 87.71 6.76 -1.07
3 0 20 0 0 65.68 62.07 53.2 82.95 13.42 -2.17
4 0 30 0 0 59.61 53.26 46.58 78.03 20.64 -3.18
5 0 40 0 0 53.91 45.34 40.36 73.11 27.81 -3.93
6 0 55 0 0 46.5 34.99 31.73 65.74 39.77 -4.51
7 0 70 0 0 40.57 26.98 24.64 58.95 51.61 -4.46
8 0 85 0 0 35.8 20.88 19.03 52.82 62.73 -3.98
9 0 100 0 0 32.3 16.67 14.95 47.84 72.08 -3.11
10 10 0 0 0 68.49 72.94 65.63 88.42 -3.95 -5.27
11 10 10 0 0 62.46 63.63 58.41 83.77 2.58 -6.21
12 10 20 0 0 56.83 55.14 51.74 79.12 9.22 -7.18
13 10 30 0 0 51.62 47.37 45.38 74.43 16.21 -7.95
14 10 40 0 0 46.73 40.29 39.41 69.68 23.43 -8.61
15 10 55 0 0 40.34 31.14 31.2 62.63 35.05 -9.05
16 10 70 0 0 35.16 23.98 24.45 56.06 46.6 -9.08
17 10 85 0 0 31.05 18.56 19.08 50.16 57.54 -8.68
18 10 100 0 0 27.97 14.74 15.1 45.28 66.87 -7.89
19 20 0 0 0 59.14 64.81 63.69 84.38 -7.86 -10.38
20 20 10 0 0 53.95 56.52 56.76 79.91 -1.39 -11.19
21 20 20 0 0 49.18 49.12 50.41 75.52 5 -11.9
22 20 30 0 0 44.57 42.07 44.22 70.92 11.95 -12.59
23 20 40 0 0 40.43 35.88 38.57 66.43 18.93 -13.1
24 20 55 0 0 34.84 27.64 30.65 59.57 30.43 -13.47
25 20 70 0 0 30.34 21.24 24.22 53.21 41.79 -13.59
26 20 85 0 0 26.84 16.45 19.11 47.55 52.52 -13.24
27 20 100 0 0 24.18 13.03 15.3 42.81 61.83 -12.65
28 30 0 0 0 50.95 57.6 61.92 80.52 -11.8 -15.33
29 30 10 0 0 46.45 50.23 55.23 76.21 -5.51 -15.96
30 30 20 0 0 42.24 43.5 49.05 71.89 0.89 -16.62
31 30 30 0 0 38.28 37.29 43.14 67.49 7.6 -17.17
32 30 40 0 0 34.67 31.74 37.71 63.13 14.47 -17.61
33 30 55 0 0 29.92 24.51 30.15 56.59 25.62 -17.82
34 30 70 0 0 26.09 18.84 24.04 50.5 36.77 -17.93
35 30 85 0 0 23.03 14.52 19.08 44.97 47.41 -17.63
36 30 100 0 0 20.71 11.47 15.44 40.36 56.51 -17.21
37 40 0 0 0 43.65 51.01 60.09 76.68 -15.58 -20.13
38 40 10 0 0 39.79 44.5 53.76 72.56 -9.46 -20.68
39 40 20 0 0 36.19 38.56 47.82 68.43 -3.25 -21.17
40 40 30 0 0 32.76 33.05 42.18 64.2 3.18 -21.62
41 40 40 0 0 29.64 28.11 36.95 59.98 9.94 -22
42 40 55 0 0 25.58 21.71 29.74 53.72 20.77 -22.13
43 40 70 0 0 22.29 16.67 23.86 47.84 31.68 -22.17
44 40 85 0 0 19.7 12.85 19.18 42.53 42.19 -22.06
45 40 100 0 0 17.69 10.11 15.61 38.04 51.19 -21.63
46 55 0 0 0 34.47 42.63 57.7 71.3 -21.45 -26.99
47 55 10 0 0 31.4 37.16 51.66 67.4 -15.48 -27.31
48 55 20 0 0 28.52 32.22 46.18 63.53 -9.63 -27.7
49 55 30 0 0 25.88 27.69 40.89 59.61 -3.36 -27.91
50 55 40 0 0 23.4 23.59 35.97 55.67 2.97 -28.07
51 55 55 0 0 20.2 18.22 29.28 49.77 13.5 -28.2
52 55 70 0 0 17.57 13.96 23.74 44.17 24.11 -28.27
53 55 85 0 0 15.53 10.77 19.35 39.18 34.2 -28.18
54 55 100 0 0 13.97 8.47 16.04 34.95 43 -28
55 70 0 0 0 26.88 35.41 55.32 66.07 -27.13 -33.53
56 70 10 0 0 24.57 31.04 49.82 62.54 -21.55 -33.62
57 70 20 0 0 22.33 26.96 44.72 58.94 -15.95 -33.86
58 70 30 0 0 20.28 23.23 39.82 55.31 -10.04 -33.93
59 70 40 0 0 18.39 19.84 35.25 51.65 -3.8 -33.99
60 70 55 0 0 15.83 15.34 29.02 46.09 6.14 -34.12
61 70 70 0 0 13.75 11.77 23.78 40.85 16.19 -34.08
62 70 85 0 0 12.09 9.02 19.6 36.03 25.96 -34.15
63 70 100 0 0 10.85 7.09 16.41 32.02 34.44 -33.94
64 85 0 0 0 20.91 29.53 53.3 61.24 -32.56 -39.71
65 85 10 0 0 19.13 25.96 48.14 58 -27.34 -39.54
66 85 20 0 0 17.45 22.66 43.37 54.72 -22.01 -39.47
67 85 30 0 0 15.82 19.56 38.87 51.34 -16.5 -39.51
68 85 40 0 0 14.33 16.72 34.59 47.9 -10.62 -39.5
69 85 55 0 0 12.35 12.96 28.75 42.71 -1.05 -39.5
70 85 70 0 0 10.7 9.95 23.84 37.76 8.55 -39.53
71 85 85 0 0 9.37 7.62 19.81 33.18 17.89 -39.51
72 85 100 0 0 8.35 5.95 16.78 29.29 25.99 -39.53
73 100 0 0 0 16.46 24.91 51.39 56.99 -37.23 -44.95
74 100 10 0 0 15.06 21.96 46.6 53.98 -32.37 -44.65
75 100 20 0 0 13.74 19.21 42.22 50.93 -27.36 -44.57
76 100 30 0 0 12.5 16.65 37.95 47.82 -22.02 -44.34
77 100 40 0 0 11.31 14.28 33.89 44.63 -16.62 -44.13
78 100 55 0 0 9.71 11.08 28.41 39.72 -7.53 -44.1
79 100 70 0 0 8.38 8.51 23.79 35.02 1.57 -44.16
80 100 85 0 0 7.27 6.47 19.94 30.57 10.52 -44.29
81 100 100 0 0 6.44 5.04 17.04 26.85 18.1 -44.32
82 0 0 10 0 77.51 80.96 58.29 92.11 -1.11 8.28
83 0 10 10 0 70.68 70.57 51.84 87.27 5.68 6.77
84 0 20 10 0 64.39 61.22 45.97 82.5 12.48 5.25
85 0 30 10 0 58.53 52.64 40.38 77.66 19.65 3.87
86 0 40 10 0 53.08 44.86 35.1 72.8 27.02 2.69
87 0 55 10 0 45.91 34.73 27.69 65.54 38.97 1.6
88 0 70 10 0 40.1 26.83 21.55 58.82 50.73 1.16
89 0 85 10 0 35.51 20.85 16.68 52.78 61.91 1.22
90 0 100 10 0 32.15 16.72 13.17 47.91 71.24 1.72
91 10 0 10 0 67.16 72.11 56.62 88.02 -5.16 2.95
92 10 10 10 0 61.23 62.85 50.44 83.36 1.49 1.58
93 10 20 10 0 55.82 54.55 44.8 78.78 8.18 0.25
94 10 30 10 0 50.68 46.84 39.36 74.09 15.22 -0.94
95 10 40 10 0 46.01 39.95 34.3 69.43 22.49 -1.96
96 10 55 10 0 39.76 30.88 27.24 62.41 34.18 -3.03
97 10 70 10 0 34.75 23.85 21.42 55.94 45.76 -3.55
98 10 85 10 0 30.77 18.51 16.76 50.11 56.74 -3.59
99 10 100 10 0 27.85 14.8 13.3 45.35 66.05 -3.07
100 20 0 10 0 57.93 64.07 54.97 84 -9.13 -2.25
101 20 10 10 0 52.85 55.88 49.09 79.55 -2.65 -3.47
102 20 20 10 0 48.21 48.55 43.67 75.17 3.86 -4.58
103 20 30 10 0 43.75 41.67 38.42 70.64 10.75 -5.62
104 20 40 10 0 39.74 35.55 33.59 66.17 17.88 -6.54
105 20 55 10 0 34.34 27.46 26.83 59.4 29.42 -7.52
106 20 70 10 0 30.02 21.19 21.29 53.16 40.78 -8.07
107 20 85 10 0 26.58 16.42 16.82 47.52 51.61 -8.19
108 20 100 10 0 23.96 13.04 13.47 42.82 60.83 -7.88
109 30 0 10 0 49.69 56.8 53.39 80.07 -13.21 -7.35
110 30 10 10 0 45.37 49.59 47.78 75.81 -6.86 -8.4
111 30 20 10 0 41.32 43.04 42.56 71.58 -0.54 -9.38
112 30 30 10 0 37.54 36.96 37.55 67.25 6.27 -10.3
113 30 40 10 0 34.07 31.51 32.91 62.94 13.22 -11.12
114 30 55 10 0 29.47 24.37 26.47 56.46 24.47 -11.99
115 30 70 10 0 25.73 18.76 21.12 50.4 35.67 -12.49
116 30 85 10 0 22.76 14.5 16.87 44.94 46.33 -12.75
117 30 100 10 0 20.5 11.47 13.64 40.37 55.46 -12.57
118 40 0 10 0 42.45 50.29 51.93 76.25 -17.26 -12.34
119 40 10 10 0 38.77 43.93 46.51 72.18 -11.06 -13.18
120 40 20 10 0 35.34 38.15 41.55 68.13 -4.82 -14.05
121 40 30 10 0 32.08 32.78 36.77 63.98 1.7 -14.85
122 40 40 10 0 29.13 27.97 32.33 59.86 8.5 -15.54
123 40 55 10 0 25.17 21.61 26.16 53.61 19.53 -16.36
124 40 70 10 0 21.96 16.6 21.04 47.75 30.57 -16.9
125 40 85 10 0 19.42 12.8 16.93 42.46 41.09 -17.16
126 40 100 10 0 17.47 10.11 13.82 38.04 50.03 -17.08
127 55 0 10 0 33.26 41.88 49.8 70.79 -23.43 -19.38
128 55 10 10 0 30.42 36.67 44.85 67.03 -17.52 -20.06
129 55 20 10 0 27.76 31.92 40.2 63.28 -11.55 -20.69
130 55 30 10 0 25.22 27.46 35.72 59.4 -5.22 -21.3
131 55 40 10 0 22.88 23.43 31.56 55.51 1.34 -21.88
132 55 55 10 0 19.77 18.11 25.8 49.62 11.98 -22.59
133 55 70 10 0 17.23 13.9 21 44.09 22.6 -23.14
134 55 85 10 0 15.21 10.7 17.07 39.07 32.81 -23.35
135 55 100 10 0 13.66 8.41 14.17 34.83 41.58 -23.53
136 70 0 10 0 25.81 34.85 47.93 65.64 -29.64 -26.12
137 70 10 10 0 23.63 30.58 43.31 62.15 -23.97 -26.57
138 70 20 10 0 21.56 26.67 38.99 58.67 -18.37 -27.03
139 70 30 10 0 19.59 22.98 34.83 55.05 -12.3 -27.52
140 70 40 10 0 17.8 19.66 30.96 51.45 -6.04 -27.95
141 70 55 10 0 15.39 15.24 25.59 45.96 4.14 -28.55
142 70 70 10 0 13.39 11.71 21.07 40.75 14.34 -29.05
143 70 85 10 0 11.76 8.96 17.34 35.9 24.25 -29.43
144 70 100 10 0 10.54 7.03 14.57 31.87 32.76 -29.67
145 85 0 10 0 19.81 28.94 46.18 60.73 -35.71 -32.52
146 85 10 10 0 18.18 25.5 41.9 57.56 -30.4 -32.73
147 85 20 10 0 16.61 22.29 37.91 54.33 -24.96 -33.06
148 85 30 10 0 15.13 19.29 34.03 51.03 -19.25 -33.3
149 85 40 10 0 13.74 16.53 30.41 47.66 -13.23 -33.62
150 85 55 10 0 11.86 12.84 25.38 42.52 -3.55 -34.1
151 85 70 10 0 10.29 9.85 21.09 37.57 6.27 -34.56
152 85 85 10 0 9.04 7.56 17.61 33.05 15.72 -34.96
153 85 100 10 0 8.04 5.88 14.92 29.11 23.98 -35.31
154 100 0 10 0 15.39 24.34 44.54 56.42 -40.97 -37.97
155 100 10 10 0 14.13 21.51 40.67 53.5 -35.98 -38.16
156 100 20 10 0 12.94 18.89 36.93 50.56 -30.89 -38.22
157 100 30 10 0 11.78 16.37 33.32 47.45 -25.4 -38.42
158 100 40 10 0 10.7 14.08 29.87 44.34 -19.81 -38.49
159 100 55 10 0 9.22 10.94 25.1 39.49 -10.52 -38.84
160 100 70 10 0 7.96 8.39 21.06 34.78 -1.2 -39.31
161 100 85 10 0 6.95 6.42 17.77 30.45 7.87 -39.79
162 100 100 10 0 6.18 5.01 15.24 26.77 15.75 -40.16
163 0 0 20 0 76.1 79.98 49.9 91.68 -2.06 16.53
164 0 10 20 0 69.41 69.72 44.4 86.86 4.75 14.67
165 0 20 20 0 63.28 60.49 39.48 82.11 11.64 12.73
166 0 30 20 0 57.55 52.03 34.72 77.3 18.82 11
167 0 40 20 0 52.27 44.38 30.19 72.48 26.3 9.51
168 0 55 20 0 45.31 34.45 23.98 65.32 38.19 7.73
169 0 70 20 0 39.69 26.7 18.73 58.69 49.98 6.78
170 0 85 20 0 35.25 20.83 14.56 52.76 61.13 6.39
171 0 100 20 0 31.94 16.72 11.48 47.91 70.5 6.54
172 10 0 20 0 65.86 71.23 48.43 87.6 -6.19 11.17
173 10 10 20 0 60.1 62.11 43.25 82.97 0.49 9.4
174 10 20 20 0 54.8 53.94 38.48 78.42 7.16 7.72
175 10 30 20 0 49.83 46.35 33.87 73.77 14.31 6.14
176 10 40 20 0 45.27 39.56 29.62 69.16 21.55 4.68
177 10 55 20 0 39.24 30.67 23.63 62.23 33.35 3.05
178 10 70 20 0 34.34 23.72 18.64 55.81 44.92 1.99
179 10 85 20 0 30.51 18.48 14.62 50.08 55.89 1.59
180 10 100 20 0 27.61 14.78 11.66 45.34 65.17 1.59
181 20 0 20 0 56.75 63.32 47.07 83.61 -10.34 5.88
182 20 10 20 0 51.81 55.26 42.11 79.19 -3.82 4.3
183 20 20 20 0 47.29 47.99 37.55 74.82 2.83 2.75
184 20 30 20 0 42.98 41.25 33.16 70.35 9.74 1.31
185 20 40 20 0 39.07 35.2 29.03 65.91 16.95 0.03
186 20 55 20 0 33.85 27.29 23.34 59.24 28.41 -1.55
187 20 70 20 0 29.66 21.09 18.56 53.05 39.89 -2.58
188 20 85 20 0 26.27 16.35 14.71 47.43 50.71 -3.18
189 20 100 20 0 23.78 13.06 11.82 42.85 59.91 -3.18
190 30 0 20 0 48.54 56.05 45.73 79.64 -14.52 0.62
191 30 10 20 0 44.37 48.99 41.01 75.44 -8.13 -0.76
192 30 20 20 0 40.47 42.56 36.66 71.25 -1.72 -2.17
193 30 30 20 0 36.82 36.61 32.45 66.99 5.05 -3.44
194 30 40 20 0 33.49 31.27 28.54 62.74 12.07 -4.63
195 30 55 20 0 29.02 24.22 23.06 56.3 23.41 -6.09
196 30 70 20 0 25.39 18.68 18.49 50.31 34.62 -7.14
197 30 85 20 0 22.5 14.47 14.79 44.9 45.33 -7.76
198 30 100 20 0 20.29 11.48 11.99 40.37 54.44 -7.96
199 40 0 20 0 41.34 49.58 44.46 75.81 -18.72 -4.45
200 40 10 20 0 37.82 43.4 40.02 71.82 -12.55 -5.71
201 40 20 20 0 34.52 37.71 35.78 67.81 -6.2 -6.88
202 40 30 20 0 31.43 32.47 31.81 63.73 0.42 -8.08
203 40 40 20 0 28.56 27.73 28.04 59.65 7.23 -9.14
204 40 55 20 0 24.76 21.5 22.85 53.49 18.28 -10.54
205 40 70 20 0 21.63 16.53 18.43 47.66 29.43 -11.58
206 40 85 20 0 19.13 12.75 14.86 42.38 39.95 -12.28
207 40 100 20 0 17.26 10.1 12.17 38.02 48.93 -12.53
208 55 0 20 0 32.22 41.27 42.77 70.37 -25.31 -11.75
209 55 10 20 0 29.51 36.17 38.59 66.65 -19.32 -12.74
210 55 20 20 0 26.99 31.54 34.74 62.96 -13.26 -13.75
211 55 30 20 0 24.56 27.18 30.99 59.14 -6.94 -14.74
212 55 40 20 0 22.34 23.25 27.49 55.32 -0.33 -15.67
213 55 55 20 0 19.36 18.02 22.59 49.51 10.38 -16.91
214 55 70 20 0 16.88 13.85 18.46 44.01 21.06 -17.94
215 55 85 20 0 14.93 10.65 15.06 38.99 31.46 -18.63
216 55 100 20 0 13.43 8.4 12.52 34.81 40.19 -19.07
217 70 0 20 0 24.76 34.25 41.21 65.16 -32.02 -18.74
218 70 10 20 0 22.72 30.13 37.36 61.77 -26.35 -19.49
219 70 20 20 0 20.81 26.32 33.78 58.34 -20.54 -20.32
220 70 30 20 0 18.96 22.73 30.27 54.79 -14.39 -21.12
221 70 40 20 0 17.25 19.47 26.99 51.23 -8.04 -21.89
222 70 55 20 0 14.92 15.1 22.43 45.77 2.16 -23.05
223 70 70 20 0 13.04 11.64 18.53 40.64 12.53 -23.92
224 70 85 20 0 11.49 8.93 15.33 35.85 22.53 -24.7
225 70 100 20 0 10.28 6.99 12.86 31.78 31.13 -25.26
226 85 0 20 0 18.81 28.42 39.76 60.26 -38.73 -25.3
227 85 10 20 0 17.32 25.08 36.23 57.15 -33.2 -25.88
228 85 20 20 0 15.85 21.97 32.88 53.99 -27.8 -26.49
229 85 30 20 0 14.45 19 29.62 50.69 -21.87 -27.17
230 85 40 20 0 13.16 16.33 26.56 47.4 -15.84 -27.75
231 85 55 20 0 11.4 12.7 22.25 42.3 -5.9 -28.68
232 85 70 20 0 9.92 9.76 18.6 37.41 4.06 -29.62
233 85 85 20 0 8.7 7.47 15.52 32.85 13.68 -30.37
234 85 100 20 0 7.8 5.87 13.24 29.08 21.96 -30.94
235 100 0 20 0 14.43 23.85 38.47 55.94 -44.63 -31.04
236 100 10 20 0 13.24 21.04 35.12 52.99 -39.43 -31.5
237 100 20 20 0 12.17 18.52 32.05 50.12 -34.21 -31.91
238 100 30 20 0 11.11 16.08 29 47.08 -28.65 -32.38
239 100 40 20 0 10.09 13.81 26.11 43.95 -22.84 -32.92
240 100 55 20 0 8.74 10.78 22.07 39.22 -13.38 -33.67
241 100 70 20 0 7.59 8.28 18.6 34.57 -3.71 -34.54
242 100 85 20 0 6.62 6.34 15.68 30.25 5.4 -35.22
243 100 100 20 0 5.91 4.96 13.49 26.61 13.4 -35.89
244 0 0 30 0 74.74 79 41.94 91.24 -2.93 25.28
245 0 10 30 0 68.21 68.89 37.46 86.45 3.94 22.93
246 0 20 30 0 62.2 59.77 33.38 81.71 10.84 20.56
247 0 30 30 0 56.61 51.44 29.42 76.94 18.06 18.43
248 0 40 30 0 51.45 43.91 25.64 72.17 25.51 16.54
249 0 55 30 0 44.7 34.15 20.44 65.08 37.47 14.19
250 0 70 30 0 39.24 26.53 16.06 58.54 49.26 12.62
251 0 85 30 0 34.93 20.76 12.54 52.68 60.39 11.69
252 0 100 30 0 31.71 16.71 9.94 47.89 69.73 11.38
253 10 0 30 0 64.57 70.33 40.81 87.16 -7.21 19.69
254 10 10 30 0 58.98 61.37 36.52 82.58 -0.48 17.55
255 10 20 30 0 53.84 53.31 32.59 78.06 6.31 15.43
256 10 30 30 0 48.97 45.83 28.78 73.43 13.44 13.42
257 10 40 30 0 44.57 39.18 25.21 68.88 20.73 11.64
258 10 55 30 0 38.68 30.41 20.22 62 32.53 9.35
259 10 70 30 0 33.97 23.62 16.04 55.7 44.08 7.77
260 10 85 30 0 30.18 18.41 12.63 49.99 55.08 6.79
261 10 100 30 0 27.4 14.78 10.1 45.33 64.34 6.45
262 20 0 30 0 55.55 62.47 39.68 83.16 -11.4 14.28
263 20 10 30 0 50.8 54.58 35.61 78.8 -4.8 12.31
264 20 20 30 0 46.36 47.43 31.83 74.46 1.79 10.38
265 20 30 30 0 42.22 40.82 28.19 70.05 8.8 8.55
266 20 40 30 0 38.43 34.89 24.81 65.66 15.97 6.82
267 20 55 30 0 33.37 27.08 19.99 59.05 27.57 4.71
268 20 70 30 0 29.28 20.98 15.99 52.93 38.96 3.1
269 20 85 30 0 26.02 16.33 12.73 47.4 49.82 2.07
270 20 100 30 0 23.55 13.05 10.27 42.84 58.96 1.59
271 30 0 30 0 47.45 55.32 38.59 79.23 -15.72 8.94
272 30 10 30 0 43.41 48.39 34.75 75.07 -9.34 7.12
273 30 20 30 0 39.66 42.1 31.15 70.94 -2.89 5.36
274 30 30 30 0 36.13 36.24 27.66 66.71 3.99 3.66
275 30 40 30 0 32.89 30.98 24.4 62.49 11.03 2.09
276 30 55 30 0 28.56 24.05 19.83 56.13 22.38 0.03
277 30 70 30 0 25.05 18.6 15.97 50.21 33.65 -1.52
278 30 85 30 0 22.21 14.41 12.81 44.81 44.37 -2.64
279 30 100 30 0 20.09 11.47 10.42 40.36 53.5 -3.18
280 40 0 30 0 40.3 48.93 37.61 75.41 -20.15 3.69
281 40 10 30 0 36.92 42.85 33.91 71.45 -13.86 2.09
282 40 20 30 0 33.75 37.3 30.5 67.5 -7.55 0.44
283 40 30 30 0 30.76 32.16 27.17 63.47 -0.91 -1.09
284 40 40 30 0 28.02 27.51 24.08 59.44 5.99 -2.58
285 40 55 30 0 24.32 21.34 19.66 53.31 17.16 -4.48
286 40 70 30 0 21.28 16.44 15.94 47.54 28.29 -6.06
287 40 85 30 0 18.85 12.72 12.91 42.33 38.78 -7.2
288 40 100 30 0 17.03 10.08 10.59 37.98 47.87 -7.83
289 55 0 30 0 31.22 40.65 36.22 69.93 -27.05 -3.85
290 55 10 30 0 28.65 35.71 32.83 66.3 -21.06 -5.21
291 55 20 30 0 26.24 31.17 29.64 62.65 -15 -6.56
292 55 30 30 0 23.94 26.89 26.54 58.87 -8.49 -7.94
293 55 40 30 0 21.8 23.02 23.61 55.09 -1.83 -9.22
294 55 55 30 0 18.94 17.88 19.53 49.36 8.94 -11.03
295 55 70 30 0 16.54 13.75 16 43.87 19.76 -12.53
296 55 85 30 0 14.64 10.6 13.11 38.9 30.08 -13.65
297 55 100 30 0 13.19 8.37 10.92 34.74 38.91 -14.42
298 70 0 30 0 23.84 33.74 35 64.76 -34.27 -11.03
299 70 10 30 0 21.88 29.67 31.84 61.37 -28.53 -12.21
300 70 20 30 0 20.06 25.96 28.88 58 -22.69 -13.36
301 70 30 30 0 18.31 22.45 25.99 54.5 -16.47 -14.52
302 70 40 30 0 16.69 19.24 23.27 50.97 -10.01 -15.69
303 70 55 30 0 14.48 14.95 19.41 45.57 0.37 -17.3
304 70 70 30 0 12.68 11.54 16.12 40.47 10.81 -18.68
305 70 85 30 0 11.19 8.87 13.37 35.74 20.9 -19.82
306 70 100 30 0 10.03 6.95 11.26 31.7 29.57 -20.73
307 85 0 30 0 17.92 27.94 33.85 59.83 -41.53 -17.86
308 85 10 30 0 16.47 24.63 30.91 56.72 -36 -18.8
309 85 20 30 0 15.12 21.61 28.18 53.61 -30.42 -19.79
310 85 30 30 0 13.82 18.72 25.46 50.36 -24.41 -20.73
311 85 40 30 0 12.61 16.1 22.93 47.1 -18.22 -21.72
312 85 55 30 0 10.95 12.54 19.32 42.06 -8.17 -23.15
313 85 70 30 0 9.56 9.68 16.2 37.26 1.87 -24.41
314 85 85 30 0 8.39 7.4 13.56 32.69 11.68 -25.58
315 85 100 30 0 7.54 5.82 11.6 28.95 20.05 -26.48
316 100 0 30 0 13.48 23.31 32.78 55.39 -48.22 -23.93
317 100 10 30 0 12.43 20.61 30.04 52.52 -42.78 -24.67
318 100 20 30 0 11.43 18.14 27.47 49.66 -37.41 -25.4
319 100 30 30 0 10.46 15.78 24.98 46.68 -31.72 -26.22
320 100 40 30 0 9.51 13.54 22.55 43.57 -25.77 -27.08
321 100 55 30 0 8.27 10.59 19.15 38.88 -16.02 -28.27
322 100 70 30 0 7.21 8.18 16.22 34.35 -6.4 -29.46
323 100 85 30 0 6.32 6.26 13.72 30.07 3.03 -30.54
324 100 100 30 0 5.63 4.89 11.82 26.41 11.19 -31.51
325 0 0 40 0 73.42 78.01 34.72 90.78 -3.69 34.25
326 0 10 40 0 67.03 68.02 31.15 86.02 3.21 31.36
327 0 20 40 0 61.19 59.06 27.8 81.32 10.17 28.64
328 0 30 40 0 55.69 50.82 24.58 76.57 17.4 26.04
329 0 40 40 0 50.59 43.37 21.54 71.81 24.79 23.57
330 0 55 40 0 44.11 33.84 17.25 64.84 36.84 20.68
331 0 70 40 0 38.81 26.36 13.6 58.37 48.59 18.58
332 0 85 40 0 34.6 20.67 10.66 52.59 59.68 17.14
333 0 100 40 0 31.49 16.69 8.47 47.87 69.02 16.49
334 10 0 40 0 63.36 69.41 33.83 86.71 -8.02 28.51
335 10 10 40 0 57.89 60.59 30.39 82.16 -1.27 25.88
336 10 20 40 0 52.87 52.65 27.18 77.67 5.51 23.38
337 10 30 40 0 48.14 45.29 24.08 73.08 12.67 20.94
338 10 40 40 0 43.85 38.74 21.19 68.56 20.02 18.67
339 10 55 40 0 38.15 30.14 17.06 61.78 31.82 15.84
340 10 70 40 0 33.56 23.45 13.6 55.53 43.39 13.68
341 10 85 40 0 29.91 18.36 10.78 49.93 54.29 12.18
342 10 100 40 0 27.15 14.75 8.65 45.29 63.54 11.39
343 20 0 40 0 54.47 61.71 33 82.76 -12.34 22.92
344 20 10 40 0 49.8 53.89 29.69 78.4 -5.73 20.51
345 20 20 40 0 45.55 46.92 26.62 74.14 0.89 18.25
346 20 30 40 0 41.5 40.37 23.67 69.73 7.97 15.92
347 20 40 40 0 37.8 34.52 20.9 65.37 15.18 13.75
348 20 55 40 0 32.9 26.87 16.95 58.86 26.75 11.05
349 20 70 40 0 28.91 20.84 13.6 52.78 38.21 8.93
350 20 85 40 0 25.7 16.23 10.86 47.28 49.03 7.36
351 20 100 40 0 23.36 13.03 8.82 42.81 58.17 6.48
352 30 0 40 0 46.4 54.58 32.15 78.8 -16.81 17.38
353 30 10 40 0 42.49 47.77 29.01 74.68 -10.37 15.2
354 30 20 40 0 38.9 41.62 26.11 70.61 -3.86 13.04
355 30 30 40 0 35.46 35.86 23.27 66.41 2.99 10.94
356 30 40 40 0 32.32 30.69 20.62 62.25 10.07 8.93
357 30 55 40 0 28.12 23.85 16.82 55.94 21.49 6.33
358 30 70 40 0 24.69 18.48 13.62 50.07 32.74 4.2
359 30 85 40 0 21.94 14.35 10.97 44.73 43.49 2.63
360 30 100 40 0 19.86 11.44 8.97 40.31 52.56 1.64
361 40 0 40 0 39.32 48.24 31.35 74.98 -21.34 12
362 40 10 40 0 36.07 42.32 28.41 71.09 -15.1 9.99
363 40 20 40 0 33.02 36.9 25.61 67.2 -8.79 8.04
364 40 30 40 0 30.14 31.81 22.91 63.18 -1.99 6.04
365 40 40 40 0 27.47 27.23 20.35 59.18 4.92 4.21
366 40 55 40 0 23.9 21.18 16.76 53.14 16.05 1.64
367 40 70 40 0 20.98 16.36 13.64 47.44 27.25 -0.39
368 40 85 40 0 18.58 12.64 11.07 42.21 37.86 -2.01
369 40 100 40 0 16.82 10.05 9.14 37.94 46.86 -3.07
370 55 0 40 0 30.31 40.07 30.32 69.52 -28.67 4.2
371 55 10 40 0 27.84 35.21 27.55 65.91 -22.59 2.48
372 55 20 40 0 25.57 30.8 25 62.34 -16.44 0.75
373 55 30 40 0 23.32 26.59 22.46 58.59 -9.98 -1
374 55 40 40 0 21.29 22.8 20.08 54.87 -3.24 -2.69
375 55 55 40 0 18.52 17.72 16.66 49.15 7.63 -5
376 55 70 40 0 16.24 13.69 13.74 43.78 18.47 -6.97
377 55 85 40 0 14.36 10.53 11.28 38.78 28.93 -8.58
378 55 100 40 0 12.94 8.3 9.42 34.61 37.81 -9.75
379 70 0 40 0 22.95 33.2 29.37 64.32 -36.34 -3.25
380 70 10 40 0 21.11 29.24 26.82 60.99 -30.51 -4.76
381 70 20 40 0 19.37 25.6 24.4 57.66 -24.65 -6.25
382 70 30 40 0 17.72 22.16 22.06 54.2 -18.31 -7.8
383 70 40 40 0 16.17 19.02 19.81 50.71 -11.81 -9.27
384 70 55 40 0 14.07 14.81 16.63 45.38 -1.29 -11.45
385 70 70 40 0 12.34 11.44 13.86 40.31 9.21 -13.27
386 70 85 40 0 10.89 8.79 11.54 35.58 19.35 -14.87
387 70 100 40 0 9.78 6.9 9.74 31.57 28.11 -16.09
388 85 0 40 0 17.05 27.42 28.47 59.36 -44.21 -10.34
389 85 10 40 0 15.72 24.23 26.11 56.32 -38.55 -11.59
390 85 20 40 0 14.45 21.3 23.88 53.27 -33 -12.85
391 85 30 40 0 13.21 18.43 21.66 50.01 -26.8 -14.24
392 85 40 40 0 12.07 15.86 19.55 46.79 -20.5 -15.5
393 85 55 40 0 10.52 12.39 16.58 41.83 -10.36 -17.43
394 85 70 40 0 9.2 9.56 13.97 37.03 -0.1 -19.19
395 85 85 40 0 8.12 7.35 11.74 32.58 9.71 -20.65
396 85 100 40 0 7.26 5.75 10.06 28.78 18.17 -21.95
397 100 0 40 0 12.63 22.79 27.54 54.86 -51.51 -16.56
398 100 10 40 0 11.66 20.18 25.38 52.04 -46.01 -17.69
399 100 20 40 0 10.78 17.82 23.36 49.28 -40.52 -18.77
400 100 30 40 0 9.85 15.46 21.25 46.25 -34.59 -19.9
401 100 40 40 0 9.01 13.35 19.32 43.28 -28.61 -21.06
402 100 55 40 0 7.85 10.43 16.47 38.59 -18.66 -22.74
403 100 70 40 0 6.86 8.07 14 34.12 -8.85 -24.3
404 100 85 40 0 6.03 6.18 11.89 29.87 0.78 -25.74
405 100 100 40 0 5.38 4.82 10.26 26.22 9.05 -27.02
406 0 0 55 0 71.55 76.48 25 90.08 -4.59 48.58
407 0 10 55 0 65.33 66.66 22.46 85.33 2.39 45.1
408 0 20 55 0 59.65 57.87 20.13 80.67 9.36 41.71
409 0 30 55 0 54.37 49.84 17.89 75.97 16.64 38.43
410 0 40 55 0 49.49 42.57 15.74 71.26 24.2 35.32
411 0 55 55 0 43.18 33.25 12.74 64.36 36.15 31.27
412 0 70 55 0 38.13 26.03 10.19 58.06 47.74 28.1
413 0 85 55 0 34.06 20.47 8.05 52.37 58.75 25.83
414 0 100 55 0 31.05 16.6 6.48 47.75 67.96 24.24
415 10 0 55 0 61.62 68 24.44 86.01 -9 42.55
416 10 10 55 0 56.34 59.37 22.03 81.49 -2.23 39.31
417 10 20 55 0 51.53 51.65 19.81 77.07 4.6 36.16
418 10 30 55 0 46.98 44.47 17.64 72.54 11.8 33.06
419 10 40 55 0 42.82 38.05 15.6 68.05 19.17 30.13
420 10 55 55 0 37.35 29.69 12.72 61.38 30.93 26.19
421 10 70 55 0 32.91 23.14 10.23 55.22 42.47 23.07
422 10 85 55 0 29.39 18.17 8.16 49.71 53.3 20.78
423 10 100 55 0 26.78 14.67 6.64 45.18 62.5 19.14
424 20 0 55 0 52.86 60.42 23.91 82.07 -13.49 36.73
425 20 10 55 0 48.43 52.84 21.63 77.78 -6.79 33.71
426 20 20 55 0 44.29 46 19.52 73.54 -0.17 30.69
427 20 30 55 0 40.43 39.65 17.42 69.22 6.92 27.84
428 20 40 55 0 36.89 33.96 15.5 64.93 14.13 25.02
429 20 55 55 0 32.15 26.44 12.66 58.46 25.8 21.31
430 20 70 55 0 28.3 20.56 10.28 52.46 37.17 18.16
431 20 85 55 0 25.25 16.08 8.29 47.09 47.97 15.79
432 20 100 55 0 22.9 12.88 6.76 42.59 57.12 14.16
433 30 0 55 0 44.96 53.45 23.42 78.14 -18.06 30.89
434 30 10 55 0 41.23 46.85 21.26 74.09 -11.65 28.08
435 30 20 55 0 37.78 40.85 19.21 70.07 -5.1 25.37
436 30 30 55 0 34.48 35.22 17.23 65.92 1.79 22.58
437 30 40 55 0 31.48 30.17 15.34 61.8 8.91 19.99
438 30 55 55 0 27.44 23.5 12.67 55.59 20.3 16.34
439 30 70 55 0 24.14 18.24 10.33 49.78 31.62 13.35
440 30 85 55 0 21.48 14.19 8.41 44.51 42.29 10.92
441 30 100 55 0 19.5 11.35 6.94 40.16 51.39 9.21
442 40 0 55 0 37.93 47.16 22.92 74.29 -22.84 25.18
443 40 10 55 0 34.88 41.45 20.87 70.49 -16.55 22.65
444 40 20 55 0 31.99 36.21 18.98 66.68 -10.27 20.03
445 40 30 55 0 29.24 31.28 17.06 62.74 -3.47 17.51
446 40 40 55 0 26.68 26.78 15.24 58.77 3.51 15.01
447 40 55 55 0 23.26 20.85 12.65 52.79 14.76 11.57
448 40 70 55 0 20.45 16.16 10.41 47.18 25.84 8.63
449 40 85 55 0 18.18 12.53 8.53 42.05 36.5 6.22
450 40 100 55 0 16.43 9.95 7.1 37.75 45.53 4.36
451 55 0 55 0 29.04 39.18 22.34 68.88 -30.73 16.97
452 55 10 55 0 26.74 34.5 20.44 65.36 -24.64 14.68
