ubuntu.slaves.black/2/packages/icc-profiles-free/src/TR006.ti3
CTI3

KEYWORD "DEVICE_CLASS"
DEVICE_CLASS "OUTPUT"
KEYWORD "COLOR_REP"
COLOR_REP "CMYK_LAB"

ORIGINATOR  "ANSI CGATS and GRACoL Committee"
FILE_DESCRIPTOR "Color Characterization Data for GRACoL printing on Grade 1 coated paper, ISO 12647-2 Paper type 1"
CREATED  "8/28/2006"
# This file is provided in support of ANSI/CGATS/GRACoL TR 006-2007
TARGET_TYPE "ANSI IT8.7/4"
COPYRIGHT "Copyright 2007 by NPES The Association for Suppliers of Printing, Publishing and Converting Technologies. "
# Profiles, or other derivative work, based on these data may be distributed with no further permissions from CGATS.
# However, this Technical Report must be identified as the source of the characterization data.
PRINT_CONDITIONS "See ANSI CGATS/GRACoL TR 006-2007"
ILLUMINANT "D50"
MEASUREMENT_GEOMETRY "0/45"
OBSERVER "CIE 2 degree"
SAMPLE_BACKING "White"
# For computations of data over a black backing using the method defined in Annex A
# of ANSI/CGATS/GRACoL TR 006-2007 a reference value for the substrate 
# over black is XYZ_X =81.066, XYZ_Y = 84.15, XYZ_Z = 73.00
# Data extracted from this characterization data set for the IDEAliance ISO 12647-7 Digital Control Strip 2007
#  is available at www.GRACOL.org

NUMBER_OF_FIELDS   11
BEGIN_DATA_FORMAT
SAMPLE_ID  CMYK_C CMYK_M CMYK_Y CMYK_K XYZ_X XYZ_Y XYZ_Z LAB_L LAB_A LAB_B
END_DATA_FORMAT

NUMBER_OF_SETS    1617
BEGIN_DATA
1 0 0 0 0 84.47 87.62 74.52 95 -0.02 -1.96  
2 0 10 0 0 76.85 76.39 66.51 90.04 6.51 -3.32  
3 0 20 0 0 69.84 66.22 59.01 85.11 13.22 -4.54  
4 0 30 0 0 63.19 56.73 51.49 80.03 20.38 -5.35  
5 0 40 0 0 57.26 48.44 44.59 75.1 27.61 -5.85  
6 0 55 0 0 49.53 37.69 35.19 67.79 39.27 -6.09  
7 0 70 0 0 42.67 28.51 26.69 60.35 51.93 -5.67  
8 0 85 0 0 36.95 21.28 19.58 53.25 64.68 -4.44
9 0 100 0 0 32.98 16.74 14.97 47.93 74.11 -3.01
10 10 0 0 0 73.59 77.96 72.47 90.76 -3.24 -7.48
11 10 10 0 0 66.98 68.09 64.69 86.05 2.96 -8.49
12 10 20 0 0 60.93 59.14 57.46 81.37 9.36 -9.41
13 10 30 0 0 55.13 50.71 50.28 76.5 16.29 -10.09
14 10 40 0 0 49.98 43.32 43.75 71.77 23.32 -10.56
15 10 55 0 0 43.2 33.75 34.79 64.76 34.5 -10.74
16 10 70 0 0 37.05 25.4 26.53 57.46 46.86 -10.38
17 10 85 0 0 31.96 18.86 19.66 50.52 59.29 -9.31
18 10 100 0 0 28.51 14.8 15.19 45.36 68.6 -7.99
19 20 0 0 0 64.07 69.48 70.49 86.74 -6.53 -12.65
20 20 10 0 0 58.34 60.72 62.96 82.23 -0.5 -13.41
21 20 20 0 0 53.09 52.79 55.97 77.75 5.71 -14.11
22 20 30 0 0 48.05 45.29 49.1 73.08 12.44 -14.65
23 20 40 0 0 43.53 38.68 42.85 68.52 19.26 -15.05
24 20 55 0 0 37.61 30.13 34.28 61.77 30.11 -15.16
25 20 70 0 0 32.16 22.61 26.33 54.67 42.13 -14.83
26 20 85 0 0 27.68 16.74 19.69 47.93 54.27 -13.84
27 20 100 0 0 24.61 13.08 15.36 42.88 63.37 -12.7
28 30 0 0 0 55.2 61.49 68.43 82.64 -9.99 -17.85
29 30 10 0 0 50.22 53.72 61.11 78.3 -4.18 -18.38
30 30 20 0 0 45.71 46.75 54.43 74.03 1.81 -18.89
31 30 30 0 0 41.4 40.14 47.85 69.57 8.37 -19.26
32 30 40 0 0 37.52 34.31 41.89 65.21 14.98 -19.54
33 30 55 0 0 32.36 26.69 33.68 58.69 25.52 -19.59
34 30 70 0 0 27.6 19.98 26.07 51.81 37.23 -19.31
35 30 85 0 0 23.65 14.71 19.71 45.24 49.02 -18.51
36 30 100 0 0 21 11.46 15.55 40.35 57.92 -17.53
37 40 0 0 0 47.33 54.31 66.24 78.64 -13.52 -22.72
38 40 10 0 0 43.07 47.46 59.23 74.48 -7.8 -23.09
39 40 20 0 0 39.21 41.32 52.84 70.4 -1.98 -23.44
40 40 30 0 0 35.55 35.53 46.59 66.16 4.38 -23.67
41 40 40 0 0 32.19 30.37 40.88 61.97 10.77 -23.84
42 40 55 0 0 27.72 23.59 33.04 55.67 21.06 -23.85
43 40 70 0 0 23.64 17.65 25.78 49.07 32.46 -23.54
44 40 85 0 0 20.16 12.93 19.69 42.66 43.94 -22.92
45 40 100 0 0 17.83 10.03 15.68 37.89 52.56 -22.07
46 55 0 0 0 36.99 44.71 62.94 72.7 -19.02 -29.82
47 55 10 0 0 33.82 39.26 56.45 68.94 -13.51 -29.8
48 55 20 0 0 30.84 34.24 50.48 65.15 -7.84 -29.89
49 55 30 0 0 27.94 29.43 44.66 61.16 -1.72 -29.97
50 55 40 0 0 25.28 25.14 39.33 57.21 4.45 -30.02
51 55 55 0 0 21.77 19.55 32.06 51.32 14.29 -29.89
52 55 70 0 0 18.52 14.61 25.3 45.09 25.16 -29.55
53 55 85 0 0 15.71 10.65 19.57 38.99 36.05 -29.01
54 55 100 0 0 13.83 8.23 15.79 34.45 44.28 -28.29
55 70 0 0 0 27.95 36.11 59.56 66.6 -25.13 -37.01
56 70 10 0 0 25.54 31.71 53.56 63.1 -19.83 -36.8
57 70 20 0 0 23.28 27.66 48 59.58 -14.42 -36.66
58 70 30 0 0 21.06 23.75 42.57 55.84 -8.52 -36.56
59 70 40 0 0 19.04 20.29 37.64 52.16 -2.61 -36.46
60 70 55 0 0 16.38 15.78 30.96 46.68 6.73 -36.19
61 70 70 0 0 13.89 11.77 24.68 40.84 17.09 -35.77
62 70 85 0 0 11.73 8.56 19.41 35.13 27.37 -35.31
63 70 100 0 0 10.29 6.58 15.89 30.84 35.28 -34.74
64 85 0 0 0 20.32 28.54 56.04 60.37 -31.64 -44.14
65 85 10 0 0 18.55 25.05 50.44 57.12 -26.55 -43.68
66 85 20 0 0 16.9 21.84 45.34 53.86 -21.33 -43.38
67 85 30 0 0 15.28 18.76 40.36 50.4 -15.66 -43.11
68 85 40 0 0 13.81 16.04 35.86 47.02 -10.02 -42.85
69 85 55 0 0 11.85 12.44 29.7 41.91 -1.04 -42.43
70 85 70 0 0 10.01 9.27 23.95 36.49 8.71 -41.94
71 85 85 0 0 8.42 6.74 19.12 31.2 18.34 -41.48
72 85 100 0 0 7.34 5.17 15.89 27.21 25.64 -41.01
73 100 0 0 0 14.97 22.89 52.78 54.96 -37.12 -50
74 100 10 0 0 13.67 20.11 47.73 51.96 -32.19 -49.48
75 100 20 0 0 12.46 17.55 43.02 48.94 -27.11 -49.02
76 100 30 0 0 11.25 15.06 38.41 45.72 -21.69 -48.6
77 100 40 0 0 10.16 12.87 34.23 42.57 -16.27 -48.19
78 100 55 0 0 8.68 9.98 28.54 37.8 -7.8 -47.64
79 100 70 0 0 7.33 7.45 23.26 32.81 1.38 -47
80 100 85 0 0 6.13 5.42 18.79 27.89 10.41 -46.47
81 100 100 0 0 5.31 4.14 15.82 24.13 17.2 -46.14
82 0 0 10 0 82.23 85.74 63.32 94.2 -0.85 6.88
83 0 10 10 0 75 74.97 56.64 89.38 5.61 5.25
84 0 20 10 0 68.25 65.11 50.3 84.54 12.23 3.75
85 0 30 10 0 61.89 55.91 44.01 79.56 19.41 2.55
86 0 40 10 0 56.24 47.85 38.25 74.73 26.69 1.63
87 0 55 10 0 48.91 37.47 30.36 67.63 38.29 0.87
88 0 70 10 0 42.24 28.41 23.07 60.26 51.03 0.7
89 0 85 10 0 36.68 21.29 17.01 53.26 63.77 1.25
90 0 100 10 0 32.99 16.9 13.06 48.13 73.3 2.38
91 10 0 10 0 71.46 76.37 61.57 90.03 -4.55 1.39
92 10 10 10 0 65.24 66.87 55.18 85.44 1.71 -0.02
93 10 20 10 0 59.43 58.18 49.13 80.84 8.11 -1.31
94 10 30 10 0 53.9 49.99 43.08 76.06 15.07 -2.34
95 10 40 10 0 48.97 42.77 37.54 71.4 22.19 -3.15
96 10 55 10 0 42.5 33.45 29.96 64.52 33.45 -3.86
97 10 70 10 0 36.57 25.26 22.93 57.33 45.85 -4.1
98 10 85 10 0 31.67 18.85 17.09 50.51 58.29 -3.67
99 10 100 10 0 28.44 14.92 13.28 45.52 67.64 -2.73
100 20 0 10 0 62.02 68.01 59.8 86.01 -8.1 -3.79
101 20 10 10 0 56.68 59.64 53.73 81.64 -2.02 -5.02
102 20 20 10 0 51.73 52.02 48.01 77.29 4.17 -6.14
103 20 30 10 0 46.9 44.69 42.21 72.69 10.95 -7.05
104 20 40 10 0 42.56 38.2 36.85 68.17 17.9 -7.77
105 20 55 10 0 36.91 29.86 29.57 61.53 28.86 -8.4
106 20 70 10 0 31.68 22.48 22.78 54.53 41.01 -8.64
107 20 85 10 0 27.36 16.71 17.14 47.89 53.16 -8.3
108 20 100 10 0 24.49 13.16 13.48 43 62.33 -7.61
109 30 0 10 0 53.23 60.13 57.96 81.91 -11.86 -8.99
110 30 10 10 0 48.68 52.77 52.16 77.74 -5.92 -10.04
111 30 20 10 0 44.42 46.04 46.68 73.57 0.1 -11
112 30 30 10 0 40.33 39.62 41.22 69.2 6.69 -11.81
113 30 40 10 0 36.6 33.88 36.11 64.87 13.44 -12.42
114 30 55 10 0 31.69 26.44 29.1 58.45 24.15 -12.96
115 30 70 10 0 27.16 19.87 22.6 51.69 36.01 -13.18
116 30 85 10 0 23.37 14.71 17.17 45.23 47.83 -12.96
117 30 100 10 0 20.83 11.52 13.61 40.44 56.72 -12.37
118 40 0 10 0 45.49 53.09 56.13 77.93 -15.64 -13.96
119 40 10 10 0 41.62 46.61 50.59 73.94 -9.81 -14.85
120 40 20 10 0 37.99 40.69 45.39 69.96 -3.95 -15.68
121 40 30 10 0 34.5 35.04 40.15 65.78 2.48 -16.32
122 40 40 10 0 31.33 30 35.31 61.65 9.03 -16.85
123 40 55 10 0 27.08 23.37 28.61 55.45 19.47 -17.33
124 40 70 10 0 23.17 17.53 22.38 48.92 31.04 -17.55
125 40 85 10 0 19.87 12.93 17.17 42.65 42.54 -17.41
126 40 100 10 0 17.63 10.07 13.72 37.97 51.17 -16.94
127 55 0 10 0 35.38 43.76 53.32 72.07 -21.65 -21.08
128 55 10 10 0 32.41 38.46 48.14 68.36 -15.98 -21.69
129 55 20 10 0 29.64 33.62 43.3 64.66 -10.24 -22.26
130 55 30 10 0 26.92 28.96 38.46 60.75 -4.02 -22.75
131 55 40 10 0 24.46 24.82 33.99 56.9 2.29 -23.13
132 55 55 10 0 21.13 19.33 27.79 51.07 12.33 -23.52
133 55 70 10 0 18.04 14.48 22 44.91 23.41 -23.71
134 55 85 10 0 15.39 10.62 17.11 38.94 34.43 -23.66
135 55 100 10 0 13.62 8.25 13.87 34.5 42.73 -23.31
136 70 0 10 0 26.45 35.26 50.48 65.95 -28.36 -28.51
137 70 10 10 0 24.23 30.99 45.64 62.5 -22.85 -28.84
138 70 20 10 0 22.16 27.09 41.15 59.06 -17.27 -29.2
139 70 30 10 0 20.12 23.34 36.64 55.42 -11.29 -29.46
140 70 40 10 0 18.26 19.99 32.52 51.83 -5.24 -29.7
141 70 55 10 0 15.75 15.57 26.83 46.4 4.35 -29.96
142 70 70 10 0 13.4 11.64 21.49 40.63 14.92 -30.09
143 70 85 10 0 11.41 8.52 16.98 35.05 25.41 -30.06
144 70 100 10 0 10.05 6.58 13.96 30.84 33.37 -29.86
145 85 0 10 0 18.93 27.77 47.43 59.68 -35.61 -35.83
146 85 10 10 0 17.35 24.41 42.98 56.5 -30.22 -35.93
147 85 20 10 0 15.86 21.34 38.82 53.32 -24.82 -36.05
148 85 30 10 0 14.39 18.38 34.7 49.95 -19.03 -36.15
149 85 40 10 0 13.06 15.74 30.93 46.63 -13.2 -36.23
150 85 55 10 0 11.25 12.26 25.75 41.62 -4.04 -36.33
151 85 70 10 0 9.55 9.15 20.88 36.28 5.99 -36.37
152 85 85 10 0 8.08 6.69 16.75 31.09 15.86 -36.36
153 85 100 10 0 7.08 5.15 13.97 27.15 23.35 -36.26
154 100 0 10 0 13.76 22.25 44.86 54.29 -41.68 -42.06
155 100 10 10 0 12.62 19.56 40.71 51.34 -36.42 -41.95
156 100 20 10 0 11.53 17.1 36.86 48.39 -31.2 -41.88
157 100 30 10 0 10.46 14.74 33.03 45.27 -25.61 -41.78
158 100 40 10 0 9.48 12.62 29.51 42.18 -20.04 -41.67
159 100 55 10 0 8.13 9.81 24.76 37.49 -11.35 -41.68
160 100 70 10 0 6.89 7.34 20.29 32.56 -1.81 -41.58
161 100 85 10 0 5.8 5.35 16.49 27.71 7.54 -41.58
162 100 100 10 0 5.05 4.1 13.94 23.99 14.66 -41.62
163 0 0 20 0 80.11 84.02 53.19 93.46 -1.76 15.94
164 0 10 20 0 73.21 73.57 47.7 88.72 4.76 13.93
165 0 20 20 0 66.75 64.03 42.43 83.98 11.36 12.13
166 0 30 20 0 60.67 55.09 37.25 79.09 18.59 10.51
167 0 40 20 0 55.21 47.2 32.46 74.32 25.88 9.16
168 0 55 20 0 48.2 37.12 25.85 67.37 37.47 7.9
169 0 70 20 0 41.77 28.26 19.72 60.12 50.23 7.12
170 0 85 20 0 36.42 21.28 14.63 53.25 62.95 7.03
171 0 100 20 0 32.91 17 11.31 48.26 72.44 7.68
172 10 0 20 0 69.5 74.84 51.75 89.32 -5.66 10.37
173 10 10 20 0 63.56 65.66 46.58 84.82 0.58 8.52
174 10 20 20 0 58.08 57.29 41.64 80.34 7.01 6.86
175 10 30 20 0 52.75 49.27 36.61 75.62 14.01 5.41
176 10 40 20 0 47.97 42.2 31.96 71.01 21.15 4.21
177 10 55 20 0 41.76 33.09 25.58 64.23 32.49 2.96
178 10 70 20 0 36.1 25.11 19.67 57.18 44.95 2.16
179 10 85 20 0 31.42 18.85 14.75 50.51 57.38 2.01
180 10 100 20 0 28.31 14.98 11.51 45.61 66.75 2.5
181 20 0 20 0 60.16 66.64 50.28 85.32 -9.47 5.12
182 20 10 20 0 55.12 58.58 45.44 81.06 -3.39 3.4
183 20 20 20 0 50.47 51.23 40.81 76.82 2.87 1.85
184 20 30 20 0 45.84 44.09 36.02 72.29 9.68 0.49
185 20 40 20 0 41.68 37.76 31.52 67.84 16.67 -0.58
186 20 55 20 0 36.25 29.56 25.36 61.27 27.81 -1.75
187 20 70 20 0 31.25 22.35 19.6 54.4 39.99 -2.5
188 20 85 20 0 27.11 16.71 14.83 47.89 52.16 -2.72
189 20 100 20 0 24.33 13.21 11.68 43.08 61.32 -2.39
190 30 0 20 0 51.48 58.89 48.73 81.23 -13.47 -0.17
191 30 10 20 0 47.23 51.83 44.17 77.18 -7.5 -1.75
192 30 20 20 0 43.28 45.39 39.83 73.15 -1.43 -3.2
193 30 30 20 0 39.34 39.11 35.3 68.83 5.21 -4.46
194 30 40 20 0 35.76 33.48 31.02 64.55 12.05 -5.48
195 30 55 20 0 31.06 26.18 25.05 58.21 22.88 -6.48
196 30 70 20 0 26.74 19.75 19.5 51.55 34.89 -7.19
197 30 85 20 0 23.11 14.7 14.89 45.22 46.71 -7.48
198 30 100 20 0 20.66 11.56 11.84 40.5 55.64 -7.29
199 40 0 20 0 43.84 51.97 47.24 77.26 -17.52 -5.29
200 40 10 20 0 40.24 45.75 42.86 73.38 -11.62 -6.68
201 40 20 20 0 36.89 40.1 38.76 69.54 -5.72 -8
202 40 30 20 0 33.57 34.59 34.48 65.43 0.76 -9.14
203 40 40 20 0 30.55 29.66 30.44 61.36 7.42 -10.07
204 40 55 20 0 26.51 23.16 24.7 55.24 18.05 -10.98
205 40 70 20 0 22.76 17.42 19.36 48.78 29.77 -11.68
206 40 85 20 0 19.61 12.91 14.93 42.63 41.32 -12.05
207 40 100 20 0 17.43 10.09 11.97 38.01 49.91 -11.98
208 55 0 20 0 33.92 42.85 44.97 71.45 -23.97 -12.61
209 55 10 20 0 31.14 37.72 40.82 67.81 -18.19 -13.69
210 55 20 20 0 28.58 33.06 36.97 64.21 -12.36 -14.76
211 55 30 20 0 26.02 28.54 33.01 60.37 -6.08 -15.71
212 55 40 20 0 23.69 24.5 29.29 56.58 0.3 -16.48
213 55 55 20 0 20.51 19.1 24.01 50.8 10.55 -17.37
214 55 70 20 0 17.58 14.34 19.06 44.71 21.84 -18.05
215 55 85 20 0 15.08 10.58 14.89 38.86 32.95 -18.44
216 55 100 20 0 13.42 8.27 12.12 34.53 41.3 -18.4
217 70 0 20 0 25.13 34.48 42.6 65.34 -31.24 -20.22
218 70 10 20 0 23.06 30.33 38.7 61.94 -25.57 -21.02
219 70 20 20 0 21.16 26.58 35.08 58.58 -19.89 -21.81
220 70 30 20 0 19.25 22.93 31.4 55 -13.82 -22.53
221 70 40 20 0 17.53 19.69 28 51.49 -7.67 -23.15
222 70 55 20 0 15.16 15.35 23.19 46.11 2.17 -23.93
223 70 70 20 0 12.98 11.52 18.65 40.44 12.98 -24.52
224 70 85 20 0 11.1 8.47 14.78 34.94 23.63 -24.93
225 70 100 20 0 9.81 6.58 12.2 30.83 31.6 -25.02
226 85 0 20 0 17.73 27.07 40.04 59.04 -39.15 -27.8
227 85 10 20 0 16.3 23.84 36.42 55.93 -33.6 -28.28
228 85 20 20 0 14.94 20.87 33.07 52.81 -28.03 -28.83
229 85 30 20 0 13.6 18.02 29.71 49.52 -22.12 -29.33
230 85 40 20 0 12.39 15.48 26.6 46.28 -16.14 -29.77
231 85 55 20 0 10.71 12.07 22.25 41.32 -6.75 -30.39
232 85 70 20 0 9.14 9.05 18.13 36.07 3.52 -30.91
233 85 85 20 0 7.77 6.63 14.6 30.95 13.61 -31.35
234 85 100 20 0 6.85 5.14 12.25 27.13 21.15 -31.55
235 100 0 20 0 12.68 21.68 37.89 53.68 -46.06 -34.17
236 100 10 20 0 11.65 19.05 34.47 50.75 -40.51 -34.44
237 100 20 20 0 10.69 16.69 31.36 47.87 -35.08 -34.76
238 100 30 20 0 9.75 14.43 28.29 44.84 -29.28 -35.09
239 100 40 20 0 8.87 12.38 25.39 41.81 -23.51 -35.36
240 100 55 20 0 7.65 9.65 21.38 37.21 -14.53 -35.78
241 100 70 20 0 6.52 7.24 17.63 32.35 -4.73 -36.21
242 100 85 20 0 5.51 5.3 14.4 27.56 4.86 -36.68
243 100 100 20 0 4.83 4.09 12.25 23.95 12.06 -37.03
244 0 0 30 0 78.37 82.6 44.56 92.84 -2.51 24.77
245 0 10 30 0 71.67 72.38 40.06 88.15 4.01 22.36
246 0 20 30 0 65.46 63.05 35.73 83.47 10.69 20.18
247 0 30 30 0 59.53 54.27 31.4 78.62 17.92 18.2
248 0 40 30 0 54.28 46.6 27.44 73.93 25.23 16.48
249 0 55 30 0 47.49 36.73 21.95 67.07 36.8 14.58
250 0 70 30 0 41.31 28.07 16.84 59.95 49.57 13.19
251 0 85 30 0 36.15 21.24 12.56 53.21 62.23 12.52
252 0 100 30 0 32.76 17.04 9.75 48.31 71.68 12.74
253 10 0 30 0 67.8 73.51 43.39 88.69 -6.64 19.06
254 10 10 30 0 62.05 64.49 39.13 84.22 -0.31 16.82
255 10 20 30 0 56.77 56.33 35.09 79.8 6.15 14.76
256 10 30 30 0 51.67 48.52 30.97 75.15 13.24 12.88
257 10 40 30 0 47.09 41.64 27.14 70.62 20.38 11.28
258 10 55 30 0 41.13 32.75 21.81 63.96 31.74 9.5
259 10 70 30 0 35.68 24.94 16.85 57.02 44.21 8.12
260 10 85 30 0 31.14 18.8 12.7 50.45 56.61 7.38
261 10 100 30 0 28.16 15.02 9.95 45.66 65.94 7.48
262 20 0 30 0 58.6 65.44 42.2 84.71 -10.56 13.68
263 20 10 30 0 53.74 57.54 38.26 80.48 -4.39 11.53
264 20 20 30 0 49.26 50.38 34.51 76.3 1.87 9.56
265 20 30 30 0 44.85 43.44 30.6 71.85 8.75 7.76
266 20 40 30 0 40.88 37.29 26.92 67.49 15.75 6.26
267 20 55 30 0 35.62 29.24 21.69 60.99 26.92 4.61
268 20 70 30 0 30.83 22.19 16.84 54.23 39.19 3.33
269 20 85 30 0 26.84 16.66 12.8 47.83 51.32 2.57
270 20 100 30 0 24.18 13.24 10.12 43.12 60.48 2.54
271 30 0 30 0 50.04 57.82 40.96 80.64 -14.75 8.25
272 30 10 30 0 45.93 50.9 37.27 76.62 -8.73 6.22
273 30 20 30 0 42.14 44.62 33.77 72.64 -2.62 4.33
274 30 30 30 0 38.44 38.56 30.13 68.43 4.07 2.61
275 30 40 30 0 35.04 33.1 26.62 64.24 10.93 1.17
276 30 55 30 0 30.49 25.91 21.55 57.95 21.91 -0.36
277 30 70 30 0 26.32 19.59 16.82 51.37 33.94 -1.56
278 30 85 30 0 22.84 14.65 12.89 45.15 45.79 -2.3
279 30 100 30 0 20.49 11.57 10.29 40.53 54.72 -2.46
280 40 0 30 0 42.46 50.99 39.73 76.67 -19.03 3.01
281 40 10 30 0 39.03 44.92 36.22 72.84 -13.06 1.16
282 40 20 30 0 35.87 39.44 32.94 69.07 -7.09 -0.61
283 40 30 30 0 32.76 34.14 29.56 65.07 -0.55 -2.28
284 40 40 30 0 29.86 29.31 26.23 61.05 6.15 -3.67
285 40 55 30 0 25.95 22.9 21.34 54.97 16.9 -5.07
286 40 70 30 0 22.36 17.28 16.77 48.61 28.71 -6.21
287 40 85 30 0 19.34 12.87 12.97 42.56 40.27 -6.97
288 40 100 30 0 17.3 10.12 10.43 38.06 48.98 -7.17
289 55 0 30 0 32.68 42.03 37.89 70.89 -25.91 -4.5
290 55 10 30 0 30.06 37.03 34.56 67.3 -20.01 -6.03
291 55 20 30 0 27.62 32.5 31.47 63.75 -14.15 -7.55
292 55 30 30 0 25.24 28.13 28.31 60.01 -7.8 -8.97
293 55 40 30 0 23.01 24.17 25.27 56.26 -1.31 -10.23
294 55 55 30 0 20 18.88 20.8 50.55 9.13 -11.61
295 55 70 30 0 17.2 14.22 16.56 44.54 20.54 -12.72
296 55 85 30 0 14.83 10.54 12.98 38.79 31.73 -13.51
297 55 100 30 0 13.23 8.26 10.58 34.52 40.11 -13.76
298 70 0 30 0 23.98 33.76 35.93 64.77 -33.71 -12.35
299 70 10 30 0 22.06 29.74 32.76 61.43 -27.93 -13.51
300 70 20 30 0 20.26 26.08 29.85 58.11 -22.17 -14.74
301 70 30 30 0 18.52 22.57 26.93 54.63 -15.96 -15.94
302 70 40 30 0 16.89 19.4 24.15 51.15 -9.66 -17.03
303 70 55 30 0 14.68 15.16 20.11 45.85 0.36 -18.3
304 70 70 30 0 12.61 11.4 16.23 40.24 11.35 -19.36
305 70 85 30 0 10.83 8.41 12.92 34.83 22.12 -20.16
306 70 100 30 0 9.61 6.56 10.68 30.79 30.13 -20.51
307 85 0 30 0 16.72 26.47 33.8 58.48 -42.23 -20.14
308 85 10 30 0 15.4 23.33 30.86 55.41 -36.55 -20.99
309 85 20 30 0 14.16 20.47 28.16 52.36 -30.88 -21.91
310 85 30 30 0 12.94 17.72 25.47 49.15 -24.81 -22.85
311 85 40 30 0 11.82 15.24 22.96 45.96 -18.67 -23.75
312 85 55 30 0 10.27 11.91 19.3 41.07 -9.01 -24.84
313 85 70 30 0 8.79 8.94 15.77 35.87 1.48 -25.79
314 85 85 30 0 7.51 6.56 12.76 30.79 11.81 -26.68
315 85 100 30 0 6.64 5.11 10.73 27.04 19.43 -27.13
316 100 0 30 0 11.77 21.11 32.01 53.07 -49.71 -26.79
317 100 10 30 0 10.85 18.61 29.26 50.23 -44.09 -27.38
318 100 20 30 0 9.99 16.33 26.71 47.41 -38.48 -28
319 100 30 30 0 9.15 14.15 24.23 44.45 -32.52 -28.72
320 100 40 30 0 8.36 12.17 21.89 41.49 -26.49 -29.41
321 100 55 30 0 7.24 9.52 18.53 36.96 -17.3 -30.27
322 100 70 30 0 6.19 7.14 15.32 32.13 -7.25 -31.13
323 100 85 30 0 5.26 5.24 12.59 27.42 2.52 -32.01
324 100 100 30 0 4.63 4.06 10.75 23.86 9.9 -32.67
325 0 0 40 0 76.65 81.18 36.7 92.21 -3.24 33.89
326 0 10 40 0 70.13 71.13 33.07 87.55 3.33 31.07
327 0 20 40 0 64.16 62.05 29.56 82.94 10.06 28.53
328 0 30 40 0 58.49 53.5 26.07 78.17 17.35 26.14
329 0 40 40 0 53.4 45.99 22.86 73.54 24.66 23.99
330 0 55 40 0 46.83 36.34 18.4 66.78 36.22 21.43
331 0 70 40 0 40.84 27.86 14.2 59.76 48.95 19.37
332 0 85 40 0 35.86 21.17 10.66 53.13 61.6 18.09
333 0 100 40 0 32.51 17.02 8.31 48.28 70.95 17.76
334 10 0 40 0 66.22 72.23 35.8 88.08 -7.49 28.03
335 10 10 40 0 60.64 63.36 32.34 83.63 -1.06 25.4
336 10 20 40 0 55.53 55.36 29.08 79.25 5.43 22.94
337 10 30 40 0 50.64 47.79 25.77 74.69 12.51 20.66
338 10 40 40 0 46.25 41.08 22.68 70.23 19.71 18.63
339 10 55 40 0 40.53 32.42 18.34 63.69 31.05 16.23
340 10 70 40 0 35.24 24.76 14.24 56.84 43.53 14.22
341 10 85 40 0 30.86 18.74 10.8 50.38 55.91 12.88
342 10 100 40 0 27.97 15.02 8.51 45.66 65.22 12.52
343 20 0 40 0 57.14 64.28 34.89 84.11 -11.54 22.47
344 20 10 40 0 52.39 56.49 31.69 79.89 -5.31 19.94
345 20 20 40 0 48.07 49.48 28.67 75.75 0.99 17.57
346 20 30 40 0 43.87 42.74 25.53 71.38 7.94 15.37
347 20 40 40 0 40.07 36.77 22.57 67.1 14.94 13.44
348 20 55 40 0 35.05 28.93 18.3 60.72 26.16 11.21
349 20 70 40 0 30.42 22.03 14.3 54.06 38.41 9.29
350 20 85 40 0 26.58 16.61 10.92 47.76 50.59 7.99
351 20 100 40 0 24.01 13.25 8.67 43.13 59.7 7.55
352 30 0 40 0 48.67 56.77 33.92 80.05 -15.91 16.88
353 30 10 40 0 44.69 49.95 30.92 76.04 -9.79 14.48
354 30 20 40 0 41.04 43.81 28.12 72.1 -3.64 12.18
355 30 30 40 0 37.53 37.95 25.25 67.98 3.07 10.01
356 30 40 40 0 34.29 32.64 22.44 63.87 9.96 8.11
357 30 55 40 0 29.93 25.62 18.25 57.67 21.01 6.05
358 30 70 40 0 25.93 19.44 14.33 51.2 33.09 4.27
359 30 85 40 0 22.56 14.58 11.04 45.05 44.96 2.97
360 30 100 40 0 20.32 11.58 8.85 40.54 53.84 2.46
361 40 0 40 0 41.23 50.08 32.95 76.12 -20.37 11.54
362 40 10 40 0 37.88 44.09 30.12 72.29 -14.37 9.28
363 40 20 40 0 34.84 38.72 27.54 68.55 -8.31 7.04
364 40 30 40 0 31.91 33.6 24.83 64.64 -1.75 5
365 40 40 40 0 29.15 28.91 22.19 60.7 4.98 3.14
366 40 55 40 0 25.43 22.65 18.15 54.71 15.85 1.18
367 40 70 40 0 21.96 17.12 14.33 48.41 27.71 -0.53
368 40 85 40 0 19.08 12.81 11.14 42.47 39.36 -1.79
369 40 100 40 0 17.13 10.12 8.99 38.06 48.08 -2.32
370 55 0 40 0 31.54 41.24 31.48 70.34 -27.66 3.79
371 55 10 40 0 29.03 36.34 28.81 66.78 -21.7 1.88
372 55 20 40 0 26.71 31.92 26.37 63.28 -15.78 -0.06
373 55 30 40 0 24.46 27.69 23.88 59.61 -9.38 -1.95
374 55 40 40 0 22.38 23.84 21.49 55.93 -2.78 -3.72
375 55 55 40 0 19.51 18.66 17.77 50.29 7.78 -5.59
376 55 70 40 0 16.83 14.08 14.22 44.35 19.32 -7.25
377 55 85 40 0 14.56 10.47 11.18 38.68 30.56 -8.47
378 55 100 40 0 13.03 8.24 9.15 34.48 39.01 -9.06
379 70 0 40 0 22.94 33.07 29.9 64.22 -35.97 -4.29
380 70 10 40 0 21.14 29.17 27.38 60.93 -30.09 -5.84
381 70 20 40 0 19.46 25.62 25.06 57.67 -24.25 -7.43
382 70 30 40 0 17.83 22.22 22.78 54.26 -18 -9.1
383 70 40 40 0 16.3 19.12 20.55 50.83 -11.59 -10.61
384 70 55 40 0 14.2 14.96 17.22 45.58 -1.36 -12.47
385 70 70 40 0 12.24 11.27 13.97 40.03 9.81 -14.06
386 70 85 40 0 10.57 8.36 11.18 34.72 20.68 -15.28
387 70 100 40 0 9.39 6.53 9.28 30.71 28.7 -16
388 85 0 40 0 15.81 25.91 28.23 57.95 -45.08 -12.4
389 85 10 40 0 14.59 22.86 25.88 54.93 -39.27 -13.6
390 85 20 40 0 13.45 20.08 23.7 51.93 -33.49 -14.85
391 85 30 40 0 12.33 17.42 21.59 48.79 -27.35 -16.23
392 85 40 40 0 11.29 15 19.56 45.64 -21.06 -17.51
393 85 55 40 0 9.84 11.74 16.56 40.8 -11.15 -19.17
394 85 70 40 0 8.47 8.84 13.6 35.67 -0.45 -20.59
395 85 85 40 0 7.27 6.52 11.07 30.69 9.97 -21.88
396 85 100 40 0 6.45 5.09 9.34 26.98 17.71 -22.64
397 100 0 40 0 10.96 20.62 26.8 52.53 -53.19 -19.34
398 100 10 40 0 10.14 18.22 24.59 49.76 -47.42 -20.23
399 100 20 40 0 9.36 16 22.53 46.97 -41.63 -21.2
400 100 30 40 0 8.61 13.9 20.55 44.09 -35.57 -22.24
401 100 40 40 0 7.89 11.98 18.68 41.19 -29.4 -23.29
402 100 55 40 0 6.87 9.38 15.91 36.7 -19.86 -24.68
403 100 70 40 0 5.89 7.05 13.21 31.92 -9.59 -26
404 100 85 40 0 5.04 5.19 10.91 27.26 0.43 -27.31
405 100 100 40 0 4.44 4.01 9.33 23.71 7.99 -28.25
406 0 0 55 0 74.48 79.35 26.33 91.39 -4.11 48.47
407 0 10 55 0 68.14 69.46 23.84 86.73 2.57 44.89
408 0 20 55 0 62.45 60.65 21.4 82.19 9.38 41.74
409 0 30 55 0 56.99 52.35 18.97 77.49 16.64 38.66
410 0 40 55 0 52.14 45.09 16.74 72.95 23.95 35.84
411 0 55 55 0 45.92 35.78 13.64 66.35 35.52 32.21
412 0 70 55 0 40.18 27.54 10.64 59.47 48.16 29.07
413 0 85 55 0 35.38 21.01 8.07 52.96 60.71 26.73
414 0 100 55 0 32.28 17.02 6.36 48.28 70.12 25.7
415 10 0 55 0 64.1 70.44 25.81 87.21 -8.48 42.18
416 10 10 55 0 58.72 61.77 23.37 82.79 -2.01 38.97
417 10 20 55 0 53.88 54.03 21.09 78.48 4.58 35.97
418 10 30 55 0 49.2 46.67 18.77 73.98 11.69 33.03
419 10 40 55 0 45.01 40.2 16.63 69.61 18.86 30.33
420 10 55 55 0 39.62 31.86 13.63 63.23 30.2 26.87
421 10 70 55 0 34.63 24.48 10.72 56.56 42.65 23.81
422 10 85 55 0 30.41 18.6 8.2 50.21 54.97 21.51
423 10 100 55 0 27.68 14.99 6.55 45.62 64.24 20.29
424 20 0 55 0 55.13 62.6 25.22 83.23 -12.73 36.36
425 20 10 55 0 50.62 55.05 22.97 79.07 -6.42 33.31
426 20 20 55 0 46.47 48.2 20.8 74.95 -0.02 30.45
427 20 30 55 0 42.46 41.67 18.62 70.64 6.94 27.6
428 20 40 55 0 38.9 35.92 16.58 66.46 14.01 25.03
429 20 55 55 0 34.18 28.41 13.65 60.26 25.17 21.67
430 20 70 55 0 29.84 21.77 10.8 53.78 37.44 18.75
431 20 85 55 0 26.16 16.48 8.36 47.6 49.56 16.42
432 20 100 55 0 23.74 13.22 6.72 43.09 58.7 15.19
433 30 0 55 0 46.8 55.26 24.61 79.19 -17.37 30.49
434 30 10 55 0 43.02 48.65 22.48 75.23 -11.16 27.62
435 30 20 55 0 39.55 42.67 20.51 71.33 -4.91 24.81
436 30 30 55 0 36.19 36.95 18.48 67.24 1.88 22.06
437 30 40 55 0 33.13 31.84 16.51 63.21 8.79 19.57
438 30 55 55 0 29.1 25.14 13.67 57.21 19.83 16.38
439 30 70 55 0 25.35 19.18 10.88 50.9 31.94 13.53
440 30 85 55 0 22.19 14.48 8.49 44.91 43.86 11.31
441 30 100 55 0 20.08 11.56 6.88 40.51 52.78 10.03
442 40 0 55 0 39.48 48.71 23.98 75.27 -22.13 24.87
443 40 10 55 0 36.34 42.92 22 71.5 -16 22.13
444 40 20 55 0 33.44 37.69 20.14 67.79 -9.86 19.46
445 40 30 55 0 30.64 32.69 18.25 63.91 -3.24 16.82
446 40 40 55 0 28.1 28.22 16.41 60.09 3.54 14.44
447 40 55 55 0 24.64 22.22 13.67 54.26 14.45 11.29
448 40 70 55 0 21.42 16.9 10.94 48.13 26.4 8.58
449 40 85 55 0 18.7 12.7 8.59 42.31 38.09 6.43
450 40 100 55 0 16.89 10.11 7.04 38.04 46.83 5.11
451 55 0 55 0 29.98 40.09 23.05 69.53 -29.92 16.71
